packages/ffe-icons/icons/filled/md/currency_lira.svg

<svg xmlns="http://www.w3.org/2000/svg" height="24" viewBox="0 -960 960 960" width="24"><path d="M370.001-176.155v-167.923L296-297.847q-15.385 9.923-30.692.896t-15.307-27.082q0-8.274 3.785-15.017 3.785-6.742 10.599-10.488l105.616-66.077v-117.463l-74.386 46.616q-15 9.307-30.307.808-15.307-8.5-15.307-26.452 0-8.228 3.718-14.96 3.717-6.732 9.666-10.472l106.616-67.077v-185.384q0-12.75 8.628-21.375 8.629-8.625 21.384-8.625 12.756 0 21.371 8.625 8.615 8.625 8.615 21.375v148.077l114.386-71.616q15-9.923 30.307-1.115 15.307 8.807 15.307 26.759 0 8.228-3.785 14.96-3.785 6.732-10.599 10.472l-145.616 92.077v117.463l114.386-71.616q15-9.923 30.307-1.115 15.307 8.807 15.307 26.759 0 8.228-3.785 14.96-3.785 6.732-10.599 10.472l-145.616 92.077V-200H440q76.923 0 135.385-48.962 58.462-48.961 71.231-125.962 1.615-11.538 11.184-18.307Q667.368-400 679.615-400q12.587 0 21.101 8.5t6.899 20.038q-14 99.384-88.932 165.422Q543.751-140.001 440-140.001h-33.846q-15.365 0-25.759-10.395-10.394-10.394-10.394-25.759Z"/></svg>

<svg xmlns="http://www.w3.org/2000/svg" height="24" viewBox="0 -960 960 960" width="24"><path d="M370-176.16v-167.92l-74 46.23q-15.38 9.93-30.69.9T250-324.03q0-8.28 3.79-15.02 3.78-6.74 10.6-10.49L370-415.61v-117.47l-74.39 46.62q-14.99 9.31-30.3.81T250-512.11q0-8.22 3.72-14.96 3.72-6.73 9.67-10.47L370-604.61V-790q0-12.75 8.63-21.37 8.63-8.63 21.38-8.63 12.76 0 21.37 8.63Q430-802.75 430-790v148.08l114.39-71.62q14.99-9.92 30.3-1.11 15.31 8.8 15.31 26.76 0 8.22-3.79 14.96-3.78 6.73-10.6 10.47L430-570.39v117.47l114.39-71.62q14.99-9.92 30.3-1.11 15.31 8.8 15.31 26.76 0 8.22-3.79 14.96-3.78 6.73-10.6 10.47L430-381.39V-200h10q76.92 0 135.39-48.96 58.46-48.96 71.23-125.96 1.61-11.54 11.18-18.31t21.82-6.77q12.58 0 21.1 8.5 8.51 8.5 6.89 20.04-14 99.38-88.93 165.42Q543.75-140 440-140h-33.85q-15.36 0-25.76-10.4Q370-160.79 370-176.16Z"/></svg>
